src/assets/icons/fa/user-circle.svg

<?xml version="1.0" encoding="utf-8"?>
<svg width="1792" height="1792" viewBox="0 0 1792 1792" xmlns="http://www.w3.org/2000/svg"><path d="M1523 1339q-22-155-87.5-257.5t-184.5-118.5q-67 74-159.5 115.5t-195.5 41.5-195.5-41.5-159.5-115.5q-119 16-184.5 118.5t-87.5 257.5q106 150 271 237.5t356 87.5 356-87.5 271-237.5zm-243-699q0-159-112.5-271.5t-271.5-112.5-271.5 112.5-112.5 271.5 112.5 271.5 271.5 112.5 271.5-112.5 112.5-271.5zm512 256q0 182-71 347.5t-190.5 286-285.5 191.5-349 71q-182 0-348-71t-286-191-191-286-71-348 71-348 191-286 286-191 348-71 348 71 286 191 191 286 71 348z"/></svg>

<svg width="1792" height="1792" xmlns="http://www.w3.org/2000/svg"><path d="M1523 1339q-22-155-87.5-257.5T1251 963q-67 74-159.5 115.5T896 1120t-195.5-41.5T541 963q-119 16-184.5 118.5T269 1339q106 150 271 237.5t356 87.5 356-87.5 271-237.5zm-243-699q0-159-112.5-271.5T896 256 624.5 368.5 512 640t112.5 271.5T896 1024t271.5-112.5T1280 640zm512 256q0 182-71 347.5t-190.5 286T1245 1721t-349 71q-182 0-348-71t-286-191-191-286T0 896t71-348 191-286T548 71 896 0t348 71 286 191 191 286 71 348z"/></svg>
